!!!CDT:
!!!PTL: Li diversi scherzi a due, a tre et quattro voci. Libro sesto
!!!PPP: Antwerp
!!!PPR: Giovanni Battista Robletti
!!!PDT: 1619
!!!RISM: C 2217Z
!!!rime:
!!!AGN: Madrigal
!!!SCT: Tsg12096h
!!!SCA: Tsg12096h
!!!voices:
!!!COM: Cifra, Antonio
!!!OTL: Giunto a la tomba ove al suo spirto vivo
**kern	**kern	**text
*part2	*part1	*part1
*staff2	*staff1	*staff1
*I"[Basso continuo]	*I"[Canto]	*
*I'Bc	*I'C	*
*oclefF4	*oclefC1	*
*clefF4	*clefG2	*
*k[b-]	*k[b-]	*
*F:	*F:	*
*omet(C)	*omet(C)	*
*M4/4	*M4/4	*
=1	=1	=1
!!LO:TX:a:t=Romanesca [Prima stanza.]
1B-y	2r	.
.	[2ff	Giun-
=2	=2	=2
2A	2ff]	.
2G	4.b-y	-to a
.	8cc	la
=3	=3	=3
2F	2cc	tom-
4F	2cc	-ba
[4F	.	.
=4	=4	=4
4F]	4r	.
4F	4dd	o-
2G	4.g	-v'al
.	8a	suo
=5	=5	=5
2D	8aL	spir-
.	16b-y	.
.	16ccJ	.
.	8dd	.
.	8f#X	-to
2E-X	8gL	vi-
.	16a	.
.	16b-yJ	.
.	16ccL	.
.	16dd	.
.	8ee-XJ	.
=6	=6	=6
2.D	1a	-vo
4D	.	.
=7	=7	=7
4D	4r	.
4C	2ee-X	Do-
[2BB-y	.	.
.	4dd	-lo-
=8	=8	=8
4BB-]	2.cc	-ro-
4AA	.	.
2GG	.	.
.	8.b-y	-sa
.	16a	pri-
=9	=9	=9
1FF	4a	-gion
.	4a	il
.	[2ff	Ciel
=10	=10	=10
2F	8.ff]	.
.	16ee	pre-
.	16ddL	-scris-
.	16cc	.
.	16b-y	.
.	16aJ	.
2E-X	8b-yL	.
.	16cc	.
.	16ddJ	.
.	[4ee-X	.
=11	=11	=11
2C	8.ee-]L	.
.	16ddJ	.
.	16ccL	.
.	16b-y	.
.	16cc	.
.	16b-yJ	.
2D	2a	.
=12	=12	=12
4GG	2g	-se,
2G	.	.
.	2r	.
4F#X	.	.
=13	=13	=13
4G	2r	.
4A	.	.
2B-y	4r	.
.	4b-y	Do-
=14	=14	=14
2A	16ccL	-lo-
.	16b-y	.
.	16cc	.
.	16ddJ	.
.	2ee-X	-ro-
2G	.	.
.	8.cc	-sa
.	16b-y	pri-
=15	=15	=15
2F	2cc	-gion
[2F	4r	.
.	4a	il
=16	=16	=16
2F]	16ddL	Ciel
.	16ee	.
.	16ff	.
.	16eeJ	.
.	16ddL	.
.	16cc	.
.	16b-y	.
.	16aJ	.
2E-X	16gL	.
.	16a	.
.	16b-y	.
.	16gJ	.
.	[4ee-X	.
=17	=17	=17
2C	8.ee-]	.
.	16g	pre-
.	16aL	-scris-
.	16b-y	.
.	16cc	.
.	16b-yJ	.
2D	2a	.
=18	=18	=18
1GG	1g	-se.
=19||	=19||	=19||
!!LO:TX:a:t=Seconda stanza.
1B-y	2r	.
.	[2f	Pal-
=20	=20	=20
2A	8f]	.
.	8f	-li-
.	4f	-do,
2G	4r	.
.	8e-X	fred-
.	8c	-do, e
=21	=21	=21
2F	2c	mu-
4F	2c	-to,
[4F	.	.
=22	=22	=22
4F]	16r	.
.	16aL	e
.	16b-y	.
.	16ccJ	.
4F	16ddL	.
.	16cc	.
.	16dd	.
.	16aJ	.
2G	16b-yL	qua-
.	16cc	.
.	16dd	.
.	16b-yJ	.
.	16gL	.
.	16a	.
.	16b-y	.
.	16aJ	.
=23	=23	=23
2D	8f#X	-si
.	32gL	pri-
.	32a	.
.	32b-y	.
.	32ccJ	.
.	8.ddL	.
.	16f#iJ	.
2E-X	8g	.
.	4a	.
.	16b-yL	.
.	16ccJ	.
=24	=24	=24
2.D	1a	-vo
4D	.	.
=25	=25	=25
4D	2r	.
4C	.	.
[2BB-y	4r	.
.	4b-y	Di
=26	=26	=26
4BB-]	8cc	mo-
.	8cc	-vi-
4AA	2dd	-men-
2GG	.	.
.	16ee-XL	-to, al
.	16dd	.
.	16cc	.
.	16b-yJ	.
=27	=27	=27
2FF	16ccL	mar-
.	16b-y	.
.	16a	.
.	16gJ	.
.	16ccL	.
.	16b-y	.
.	16a	.
.	16gJ	.
[2F	16fL	.
.	16c	.
.	16d	.
.	16enXiJ	.
.	16fL	.
.	16g	.
.	16a	.
.	16b-yJ	.
=28	=28	=28
2F]	16ccL	-mo
.	16a	.
.	16b-y	.
.	16ccJ	.
.	[4dd	gli oc-
2E-X	16dd]L	.
.	16g	.
.	16a	.
.	16b-yJ	.
.	16ccL	.
.	16dd	.
.	[8ee-XJ	.
=29	=29	=29
2C	8ee-]	.
.	4a	-chi af-
.	16b-yL	.
.	16ccJ	.
2D	2a	-fis-
=30	=30	=30
4GG	2g	-se,
2G	.	.
.	2r	.
4F#X	.	.
=31	=31	=31
4G	2r	.
4A	.	.
[2B-y	8r	.
.	8f	Di
.	8gL	.
.	8aJ	.
=32	=32	=32
4B-]	8b-y	.
.	8b-y	mo-
4A	8ccL	.
.	8ddJ	.
2G	8ee-X	.
.	8cc	-vi-
.	8ddL	-men-
.	8eenXiJ	.
=33	=33	=33
[1F	8ff	.
.	8g	-to, al
.	8aL	.
.	8b-yJ	.
.	8cc	.
.	8cc	mar-
.	8ddL	.
.	8eeJ	.
=34	=34	=34
2F]	8ff	.
.	8dd	-mo
.	8eeL	.
.	8ffJ	.
2E-X	8gg	.
.	8g	gli oc-
.	8aL	.
.	8b-yJ	.
=35	=35	=35
2C	8.ccL	.
.	16ddJ	.
.	8.ee-X	.
.	16a	-chi af-
2D	2a	-fis-
=36	=36	=36
1GG	1g	-se.
=37||	=37||	=37||
!!LO:TX:a:t=Terza stanza.
1B-y	4r	.
.	4dd	Al
.	[2ff	fin
=38	=38	=38
2A	8ff]	.
.	16fL	sgor-
.	16gJ	.
.	16aL	.
.	16b-y	.
.	16cc	.
.	16aJ	.
2G	16b-yL	-gan-
.	16a	.
.	16g	.
.	16aJ	.
.	16b-yL	.
.	16cc	.
.	16dd	.
.	16gJ	.
=39	=39	=39
2F	16aL	.
.	16b-y	.
.	16cc	.
.	16b-yJ	.
.	16aL	.
.	16g	.
.	16f	.
.	16eJ	.
4F	16aL	.
.	16f	.
.	16g	.
.	16aJ	.
[4F	16b-yL	.
.	16cc	.
.	16dd	.
.	16eeJ	.
=40	=40	=40
4F]	8ff	.
.	16fL	-do un
.	16gJ	.
4F	16aL	.
.	16b-y	.
.	16cc	.
.	16ddJ	.
2G	16ee-XL	la-
.	16dd	.
.	16dd	.
.	16ccJ	.
.	16b-yL	-cri-
.	16a	.
.	16b-y	.
.	16ccJ	.
=41	=41	=41
2D	16ddL	-mo-
.	16a	.
.	16b-y	.
.	16ccJ	.
.	16dd	.
.	16dL	-so
.	16enXi	.
.	16fJ	.
2E-X	16gL	ri-
.	16a	.
.	16b-y	.
.	16ccJ	.
.	16ddL	.
.	16eenXi	.
.	16ff	.
.	16ggJ	.
=42	=42	=42
2.D	1a	-vo,
4D	.	.
=43	=43	=43
4D	1r	.
4C	.	.
[2BB-y	.	.
=44	=44	=44
4BB-]	2ff	In
4AA	.	.
2GG	4ee-X	un
.	[4ee-i	lan-
=45	=45	=45
1FF	8ee-]	.
.	8dd	-gui-
.	4dd	-d'ohi-
.	[2cc	-mè
=46	=46	=46
2F	4cc]	.
.	4b-y	pro-
2E-X	[2b-y	-rup-
=47	=47	=47
2C	8b-]L	.
.	8aJ	.
.	8cc	.
.	8b-y	-pe e
2D	2a	dis-
=48	=48	=48
4GG	2g	-se,
2G	.	.
.	2r	.
4F#X	.	.
=49	=49	=49
4G	2r	.
4A	.	.
[2B-y	4r	.
.	4b-y	In
=50	=50	=50
4B-]	4dd	un
4A	4.ff	lan-
2G	.	.
.	8ee-X	-gui-
.	4ee-i	-d'ohi-
=51	=51	=51
[1F	8ddL	-mè
.	16cc	.
.	16b-yJ	.
.	16aL	.
.	16g	.
.	16a	.
.	16b-yJ	.
.	[2cc	.
=52	=52	=52
2F]	16cc]	.
.	16aL	pro-
.	16b-y	.
.	16ccJ	.
.	16ddL	.
.	16b-y	.
.	16cc	.
.	16ddJ	.
2E-X	[2g	-rup-
=53	=53	=53
2C	4g]	.
.	8aL	-pe e
.	16b-y	.
.	16ccJ	.
2D	2a	dis-
=54	=54	=54
1GG	1g	-se:
=55||	=55||	=55||
!!LO:TX:a:t=Quarta, et ultima stanza.
1B-y	8r	.
.	16fL	"O
.	16gJ	.
.	16aL	.
.	16b-y	.
.	16cc	.
.	32dd	.
.	32eeJ	.
.	[2ff	sas-
=56	=56	=56
2A	8ff]	.
.	16fL	-so a-
.	16gJ	.
.	16aL	.
.	16b-y	.
.	16cc	.
.	16ddJ	.
2G	8ee-X	.
.	16e-iL	-ma-
.	16fJ	.
.	16gL	.
.	16a	.
.	16b-y	.
.	16ccJ	.
=57	=57	=57
2F	8ddL	.
.	16cc	.
.	16b-yJ	.
.	16aL	.
.	16g	.
.	16a	.
.	16b-yJ	.
4F	16ccL	.
.	16b-y	.
.	16a	.
.	16gJ	.
[4F	16ccL	.
.	16b-y	.
.	16a	.
.	16gJ	.
=58	=58	=58
4F]	16ffL	-to et
.	16ee	.
.	16dd	.
.	16ccJ	.
4F	16ddL	.
.	16cc	.
.	16b-y	.
.	16aJ	.
2G	16ee-XL	ho-
.	16dd	.
.	16cc	.
.	16b-yJ	.
.	16ddL	-no-
.	16cc	.
.	16b-y	.
.	16aJ	.
=59	=59	=59
2D	16ddL	-ra-
.	16cc	.
.	16b-y	.
.	16aJ	.
.	16b-yL	-to
.	16a	.
.	16g	.
.	16fJ	.
2E-X	16b-yL	tan-
.	16a	.
.	16g	.
.	16fJ	.
.	16ccL	.
.	16b-y	.
.	16a	.
.	16gJ	.
=60	=60	=60
2.D	1a	-to
4D	.	.
=61	=61	=61
4D	2r	.
4C	.	.
[2BB-y	4r	.
.	4f	Che
=62	=62	=62
4BB-]	4g	den-
4AA	4a	-tro hai
2GG	4.a	le
.	8g	mie
=63	=63	=63
2FF	16aL	fiam-
.	16g	.
.	16f	.
.	16eJ	.
.	16fL	.
.	16g	.
.	16a	.
.	16b-yJ	.
[2F	8ccL	.
.	16f	.
.	16gJ	.
.	16aL	.
.	16b-y	.
.	16cc	.
.	16ddJ	.
=64	=64	=64
2F]	8ee-X	.
.	16ddL	-me, e
.	16ccJ	.
.	16ddL	.
.	16b-y	.
.	16cc	.
.	16ddJ	.
2E-X	16b-yL	fuo-
.	16g	.
.	16a	.
.	16b-yJ	.
.	16ccL	.
.	16dd	.
.	16ee-i	.
.	16ffJ	.
=65	=65	=65
2C	4.gg	.
.	8a	-ri il
2D	2a	pian-
=66	=66	=66
4GG	2g	-to,
2G	.	.
.	2r	.
4F#X	.	.
=67	=67	=67
4G	2r	.
4A	.	.
[2B-y	16r	.
.	16ffL	Che
.	16ee	.
.	16ddJ	.
.	16ccL	.
.	16dd	.
.	16b-y	.
.	16ccJ	.
=68	=68	=68
4B-]	16ddL	den-
.	16cc	.
.	16dd	.
.	16ee-XJ	.
4A	16ccL	-tro hai
.	16dd	.
.	16ee-X	.
.	16ddJ	.
2G	16b-y	le
.	16ee-iL	mie
.	16dd	.
.	16ccJ	.
.	16b-yL	.
.	16cc	.
.	16a	.
.	16b-yJ	.
=69	=69	=69
[1F	16ccL	fiam-
.	16c	.
.	16d	.
.	16enXiJ	.
.	16fL	.
.	16g	.
.	16a	.
.	16b-yJ	.
.	16ccL	-me, e
.	16a	.
.	16b-y	.
.	16ccJ	.
.	16fL	fuo-
.	16g	.
.	16a	.
.	16fJ	.
=70	=70	=70
2F]	16cL	.
.	16cc	.
.	16dd	.
.	16eeJ	.
.	16ffL	.
.	16f	.
.	16g	.
.	16aJ	.
2E-X	16b-yL	.
.	16b-y	.
.	16cc	.
.	16ddJ	.
.	[4ee-X	.
=71	=71	=71
2C	4.ee-]	.
.	8a	-ri il
2D	2a	pian-
=72	=72	=72
1GGl	1gl	-to.
==	==	==
*-	*-	*-
!!!system-decoration: [*]
!!!RDF**kern: i = editorial accidental
!!!RDF**kern: l = terminal long
!!!ENC: Emiliano Ricciardi
!!!END:
!!!EED: Ricciardi, Emiliano
!!!EEV: 2020/02/23
!!!YEC: Copyright 2018 Emiliano Ricciardi, All Rights Reserved
!!!ONB: Translated from MusicXML on 2020/02/23
!!@@BEGIN:	VERSEDATA
!!@CATALOGNUM:	Tsg12096
!!@LAST_MODIFIED: 2020/07/12
!!@TITLE:		Giunto a la tomba ove al suo spirto vivo
!!@CANTO:		XII
!!@OTTAVA:	96
!!@MANUSRC:	G-Al, G-Am, G-Au, G-Br<sub>1</sub>, G-Br<sub>2</sub>, G-Cv, G-Es<sub>1</sub>, G-Es<sub>2</sub>, G-Es<sub>3</sub>, G-F, G-Fr, G-Fr<sub>1</sub>, G-Fr<sub>2</sub>, G-Mc, G-Mc<sub>1</sub>, G-Mg, G-Mr, G-Mt, G-N, G-Ol
!!@PRINTSRC:	G-1580CM, G-1581B, G-1581CV, G-1581R, G-1581MR, G-1581P, G-1581V, G-1581V<sub>bis</sub>, G-1582C, G-1582M, G-1582MC, G-1582P, G-1582SC, G-1582SC<sub>bis</sub>, G-1583S, G-1584O, G-1584S, G-1585C, G-1585S, G-1588S, G-1589S, G-1590B, G-1590S, G-1592S, G-1593S, G-1594C, G-1595C, G-1597C, G-1598C, G-1599C, G-1600C, G-1600S, G-1601C, G-1601R, G-1602C, G-1604C, G-1604Cl, G-1604F, G-1604P, G-1606B, G-1606B<sub>bis</sub>, G-1606L, G-1607ZR, G-1608DP, G-1609GC, G-1610M, G-1611S, G-1611V, G-1612P, G-1613M, G-1613P, G-1613V, G-1615P, G-1616M, G-1617P, G-1619B, G-1619V, G-1620M, G-1620S, G-1621R, G-1624I, G-1624MT, G-1625C, G-1625S, G-1625SS, G-1626C, G-1626Co, G-1627M, G-1628T, G-1628Tu, G-1630L, G-1630T, G-1632FT, G-1639CF, G-1642M, G-1643I, G-1644P, G-1644S
!!@@BEGIN:	VERSES
!!@ABOUTIT:
!!@ABOUTEN:
!!@EDITOR:	Angelo Solerti
!!@EDITION_TITLE: Gerusalemme liberata. Poema eroico di Torquato Tasso. Edizione critica sui manoscritti e le prime stampe.
!!@EDITION_LOC:	Florence
!!@EDITION_PUB:	G. Barbera
!!@EDITION_DATE:  1895
!!@EDITION_VOL:
!!@EDITION_PAGE:
!!@TRANSLATOR:	Emiliano Ricciardi and Amyrose McCue Gill
!!@VERSE:
!!	Giunto a la tomba ove al suo spirto vivo
!!	Dolorosa prigione il Ciel prescrisse;
!!	Pallido, freddo, muto, e quasi privo
!!	Di movimento, al marmo gli occhi affisse.
!!	Alfin sgorgando un lagrimoso rivo,
!!	In un languido oimè proruppe, e disse:
!!	"O sasso amato ed onorato tanto
!!	Che dentro hai le mie fiamme, e fuori il pianto:"
!!@MVERSE_DATE: 20230824
!!@MVERSE:
!!	Giun||to_a la tom||ba_o||ve_al suo spir||to vi||vo		=a
!!	Do|lo|ro||sa pri|gio||ne_il Ciel pre|scris||se;			=b
!!	Pal||li|do, fred||do, mu||to,_e qua||si pri||vo			=a*
!!	Di mo|vi|men||to,_al mar||mo gli_oc||chi_af|fis||se.		=b
!!	Al|fin|| sgor|gan||do_un la|gri|mo||so ri||vo,			=a
!!	In un lan||gui|do_oi|mè|| pro|rup||pe,_e dis||se:		=b
!!	"O sas||so_a|ma||to_ed o|no|ra||to tan||to			=c*
!!	Che den||tro_hai le mie fiam||me,_e fuo||ri_il pian||to:"	=c
!!@TVERSE:
!![Having] reached the tomb where for her living spirit
!!	A sorrowful prison Heaven mandated;
!!	Pale, cold, mute, and almost lacking
!!	In movement, upon marble he fixed his eyes.
!!	At last disgorging a tearful river,
!!	With a weak “Oh dear” burst forth, and he said:
!!	"O stone, beloved and so honored
!!	That within you have my flames, and without my tears:"
!!@@END:		VERSES
!!@OTHER_CRIT_ED:  Torquato Tasso, <i>Gerusalemme liberata</i>, ed. Lanfranco Caretti, 2 vols. (Bari: Laterza, 1967).
!!@ATTRIBUTION_ABOUT:
!!@DATING:	mid-1560s through 1570s
!!@DEDICATEE:	Duke Alfonso II d'Este
!!@COMMENTARY:
!!@@END:		VERSEDATA
!!@@BEGIN: SETTING
!!@CATALOGNUM:	Tsg12096h
!!@CANTO:		XII
!!@OTTAVA:	96
!!@TITLE:	Giunto a la tomba ove al suo spirto vivo
!!@SETTINGTITLE:	Giunto a la tomba ov'al suo spirto vivo
!!@COMPOSER:	Cifra, Antonio
!!@PARTS:		1 of 1
!!@PRINCEPSTITLE:	Li diversi scherzi a due, a tre et quattro voci. Libro sesto
!!@PRINCEPSLOC:	Rome?
!!@NORMLOC:	Antwerp
!!@NORMPUB:	Giovanni Battista Robletti
!!@NORMPUBSHORT:	Robletti
!!@PRINCEPSPUB:	Giovanni Battista Robletti?
!!@PRINCEPSYEAR:	1619
!!@PRINCEPSRISM:	C 2217Z
!!@OVOICES:	1+bc
!!@EXTANTVOICES:	1+bc
!!@OMENSURATION:	C
!!@OCLEFS:	C1,F4
!!@OTIME:		
!!@OKEYSIG:	b-
!!@FINAL:	(G)(G)(G)G
!!@TIMPEDITOR:		Ricciardi, Emiliano
!!@REPRINTS:	
!!@@END: SETTING
